X:29
T:Kings Bridge Assembly,The,3parts. JN.07
T:Sailors Are All At The Bar,aka. JN.07
M:6/8
L:1/8
Q:3/8=120
S:James Nuttall MS,c1830?,Rossendale,East Lancs.
R: Jig
O:England
A:East Lancashire
Z:vmp.Manchester Morris Men
V:1
V:2
V:3 clef=bass
K:D
[V:1] |: f2e f2e | dcd A2A | BGB AFA | GEG F2F |
[V:2] |: d2cd2c | F2FF2F | G2G FED | C2CC2z |
[V:3] |: D,2zD,2z | D,2zD,2z | G,2zF,2z | A,A,A, A,2z |
%
[V:1] f2e f2e | dcd A2A | BAG FGE | D2D D3 😐
[V:2] d2Ad2A | F2FF2F | GFE DEC | D2FF3 😐
[V:3] D,2D,D,2D, | D,2zD,2z | G,2G,A,2A,, | D,F,A,D,3 😐
%
[V:1] |: DFA AFD | G2B B2B | Gef ecA | d2f f2f |
[V:2] |: F2FF2F | DFAG2G | Gcd cAF | F2DD2D |
[V:3] |: D,2D,D,2D, | G,2G,G,3 | G,2zG,2z | D,2zD,2z |
%
[V:1] afd Bdf | ged cBe | BAG FGE | D2D D3 😐
[V:2] fdA GBd | ecB AGc | GFE DEC | D2[A,F][A,3F3] 😐
[V:3] D,2zD,2z | G,2zG,2z | A,2zA,,B,,C, | D,2D,D,3 😐

